X:1
T:Eli Green's Cake Walk.
T:Eli Green's Cake Walk.
T:By Sadie Koninsky.
T:(Instrumental.) Characteristic March. 
T:Copyright 1898 by Jos. W. Stern &amp; Co.
T:Copyright 1898 by Jos. W. Stern &amp; Co.
T:Copyright 1898 by Jos. W. Stern &amp; Co.
T:Copyright 1898 by Jos. W. Stern &amp; Co.
C:Sadie Koninsky
Z:Copyright 1898 by Jos. W. Stern & Co.
%%score { ( 1 3 ) | 2 }
L:1/8
M:2/4
K:F
V:1 treble nm="Piano" snm="Pno."
V:3 treble 
V:2 bass 
V:1
"^Introd."!ff! !^![A^cea]z/A/BA | !^![Adfa]z/A/BA | [A^ca] [Aca]2 [^Gd^g] | %3
 [A^ca][^Gd^g] [Aca] z |:"^March." DD/E/ FF/E/ | D/E/F/G/ (A/d) z/ | DD/E/ FF/E/ | %7
 D/E/F/G/ (A/d) z/ | [DB][DEB] !^![DFA]2 | [DB][DEB] !^![DFA]2 | GG/A/ FF/G/ | %11
 [^CE]/!^!A^G/ (A/=G/F/E/) | DD/E/ FF/E/ | D/E/F/G/ (A/d) z/ | DD/E/ FF/E/ | D/E/F/G/ (A/d) z/ | %16
 [DB][DEB] !^![DFA]2 | [DB][DEB] !^![DFA]2 | A>B A/G/F/E/ |1 D{/^G}A{/G}A{/G}A :|2 %20
 D z !^![=cgb=c']2 |:!mf! [fac'] [fac']2 [fa] | [f^gd']2 [fac']2 | [cfa] [cfa]2 [cf] | %24
 [dfb]2 [cfa]2 | [=Bfa]2 [Bfg]2 | d2 [=Bg]2 | !>!a2 !>!g2 | !>!e2 !>!c2 | [fac'] [fac']2 [fa] | %30
 [f^gd']2 [fac']2 | [cfa] [cfa]2 [cf] | [dfb]2 [cfa]2 | [=Bfa] [Bfg]2 [Bd] | !>!a2 !>!g2 |1 %35
 f!f! z!<(! [cc']>[^c^c']!<)! |!>(! !>![ee']!>![dd'] !>![Bb]!>![Gg]!>)! :|2 f(A/B/) cA | %38
 F z !^![A^ca]2 ||!p! dd/e/ ff/e/ |!<(! (d/e/f/g/) (a/!<)!d')!mp! z/ | dd/e/ ff/e/ | %42
 (d/e/f/g/) (a/d') z/ | [db][deb] !^![dfa]2 | [db][deb] !^![dfa]2 | g(g/a/) f(f/g/) | %46
 [^ce]/a^g/ (a/=g/f/e/) |!f! dd/e/ ff/e/ | (d/e/f/g/) (a/d') z/ | dd/e/ ff/e/ | %50
 d/e/f/g/ (a/d') z/ | [db][deb] !^![dfa]2 | [db][deb] !^![dfa]2 | aa/b/ (a/g/f/e/) | %54
 d z !arpeggio![dfad'] z ||!p! [FAd] [FAc]2 =B | (cF{/A} GF) | (E c3) | (e c'3) | %59
"_marcato." !^!C[GB] !^!^C[GB] | !^!D[GB] !^!E[GB] |!f!!<(!{/G} (FE FG)!<)! | !>!A4 | %63
!p! [FAd] [FAc]2 =B | cF{/A}GF | (E c3) | (e c'3) | !^!C[GB] !^!^C[GB] | !^!D[GB] !^!E[GB] | %69
 F z (dc) | (dc) (dc) ||!f! [dd'] [cc']2 [=B=b] | [cc'][Ff][Gg][Ff] | [Ee] [cc']3 | %74
!8va(! e' c''3!8va)! |"_cresc." !^![Cc]2 !^![^C^c]2 | !^![Dd]2 !^![Ee]2 |!<(!{/g} (fefg)!<)! | %78
 a(d/c/ =B/c/d/c/) | [dd'] [cc']2 [=B=b] | [cc'][Ff][Gg][Ff] | ([Ee] [cc']3) | %82
!8va(! (e' c''3)!8va)! | !^![Cc]2!<(! !^![^C^c]2 | !^![Dd]2 !^![Ee]2!<)! | [FAf](A/B/) BA | %86
 F z !arpeggio!!^![FAcf] z ||[K:C]!mf!!<(! [EG] [EG]2 [Ec]!<)! | [Gce]3 z | a>g a>g | %90
 [cea][ceg][Gce][Ec] | [EG] [EA]2 [Ec] | [Gce]3 z | d>^c d>c | (ed) (BG) |!mf! [EG] [EA]2 [Ec] | %96
 [Gce]3 z | a>g a>g | [cea][ceg] [ce](c/!f!d/) | !>![Ee]3 (c/d/) | !>![Ee]3 (c/d/) | %101
 e[Gg] [Bfa][Bfg] | [cec'] z !^![E_Bc]2 ||[K:F]!ff! [dad'] [cac']2 [=B=b] | [cc'][Ff] [Gg][Ff] | %105
 [EBf] !^![cc']3 |!8va(! [ebe'] !^![c'c'']3!8va)! | !^![Cc]2 !^![^C^c]2 | %108
!<(! !^![Dd]2 !^![Ee]2!<)! | [FAf]!<(![Ee][Ff][Gg]!<)! | [Aa](d/c/ =B/c/d/c/) | %111
 [dad'] [cac']2 [=B=b] | [cc'][Ff][Gg][Ff] | [DBe] [cc']3 |!8va(! [fbe'] [c'c'']3!8va)! | %115
 !^![Cc]2 !^![^C^c]2 | !^![Dd]2 !^![Ee]2 | [FAf](A/B/) cA | %118
 F z!8va(! !arpeggio!!^![fac'f'] z!8va)! |] %119
V:2
 !^![A,,E,A,]z/A,/B,A, | !^![A,,D,A,]z/A,/B,A, | [A,,A,] [A,,A,]2 [B,,B,] | %3
 [A,,A,][B,,B,] [A,,A,] z |:!p! D,"^2d. time 8va &"[F,A,] A,,!f!!p![F,A,] | D,[F,A,] A,,[F,A,] | %6
 D,[F,A,] A,,[F,A,] | D,[F,A,] D,[F,A,] | [G,,G,][G,,G,] !^![D,,D,]2 | [G,,G,][G,,G,] !^![D,,D,]2 | %10
 ^C,[E,G,A,] D,[F,A,] | A,,/A,^G,/ (A,/=G,/F,/E,/) | D,[F,A,] A,,[F,A,] | D,[F,A,] A,,[F,A,] | %14
 D,[F,A,] A,,[F,A,] | D,[F,A,] D,[F,A,] | [G,,G,][G,,G,] !^![D,,D,]2 | [G,,G,][G,,G,] !^![D,,D,]2 | %18
 A,,[G,A,^C] A,,[G,A,C] |1 [D,F,A,]{/^G,}A,{/G,}A,{/G,}A, :|2 [D,F,A,] z !^![E,G,B,=C]2 |: %21
 F,[A,CF] F,[A,CF] | F,[^G,=B,F] F,[G,B,F] | F,[A,CF] F,[A,CF] | F,[B,DF] F,[A,CF] | %25
 D,[G,=B,F] G,,[G,B,F] | =B,,[G,DF] G,,[G,=B,F] |"^cresc." C,[_B,C] E,[B,C] | G,[B,C] C,[B,C] | %29
!f! F,[A,CF] F,[A,CF] | F,[^G,=B,F] F,[A,CF] | F,[A,CF] F,[A,CF] | F,[B,DF] F,[A,CF] | %33
 D,[G,=B,F] G,,[G,B,F] | C,[_B,CE] C,[B,CE] |1 [F,A,CF] z [C,C]>!ff![^C,^C] | %36
 !>![E,E]!>![D,D] !>![B,,B,]!>![G,,G,] :|2!f! [F,A,CF](A,/B,/) CA, | F, z !^![A,,E,A,]2 || %39
 D,[F,A,D] A,,[F,A,D] | D,[F,A,D] A,,[F,A,D] | D,[F,A,D] A,,[F,A,D] | %42
!<(! D,[F,A,D] D,!<)!!mf![F,A,D] | [G,,G,][G,,G,] !^![D,,D,]2 | [G,,G,][G,,G,] !^![D,,D,]2 | %45
 ^C,[G,A,E] D,[F,A,D] | A,,[E,A,^C] [E,A,C] z | D,[F,A,D] A,,[F,A,D] | D,[F,A,D] A,,[F,A,D] | %49
 D,[F,A,D] A,,[F,A,D] | D,[F,A,D] D,[F,A,D] | [G,,G,][G,,G,] !^![D,,D,]2 | %52
 [G,,G,][G,,G,] !^![D,,D,]2 | A,,[G,A,^C] A,,[G,A,C] | [D,F,A,D] z [D,,D,] z || F,[A,C] C,[A,C] | %56
 F,[A,C] C,[A,C] |!<(! G,[B,C]!<)!!mp! C,[B,C] |!<(! G,[B,C]!<)!!mf! C,[B,C] | %59
!<(! !>!E,2 !>!_E,2!<)! | !>!D,2 !>!C,2 | F,[A,C] C,[A,C] |!ff! F,C,A,,C, | F,[A,C] C,[A,C] | %64
 F,[A,C] C,[A,C] | G,[B,C] C,[B,C] |!<(! G,[B,C]!<)! C,[B,C] | !>!E,2!<(! !>!_E,2 | %68
 !>!D,2 !>!C,2!<)! | [F,A,] z!<(! (([G,B,]2 | [A,C]2 [G,B,]2))!<)! || F,[A,C] C,[A,C] | %72
 F,[A,C] C,[A,C] | G,[B,C] C,[B,C] | G,[B,C] C,[B,C] | !>![E,,E,]2 !>![_E,,_E,]2 | %76
 !>![D,,D,]2 !>![C,,C,]2 | [F,,F,][A,C] C,[A,C] | F,[A,C] C,[A,C] | F,[A,C] C,[A,C] | %80
 F,[A,C] C,[A,C] | G,[B,C] C,[B,C] | G,[B,C] C,[B,C] | !^![E,,E,]2 !^![_E,,_E,]2 | %84
 !^![D,,D,]2 !^![C,,C,]2 | [F,,F,](A,/B,/) CA, | F, z !^![F,,C,F,] z ||[K:C] C,[E,G,C] G,,[E,G,C] | %88
 C,[E,G,C] G,,[E,G,C] | C,[E,G,C] G,,[E,G,C] | C,[E,G,C] C,[E,G,C] | C,[E,G,C] G,,[E,G,C] | %92
 C,[E,G,C] C,[E,G,C] | D,[A,C] D,[A,C] | G,,[=F,G,B,] G,,[F,G,B,] | C,[E,G,C] G,,[E,G,C] | %96
 C,[E,G,C] G,,[E,G,C] | C,[E,G,C] G,,[E,G,C] | C,[E,G,C] [E,G,C] z | z [^G,,^G,][A,,A,] z | %100
 z [^G,,^G,][A,,A,] z | G,,[E,G,C] G,,[F,G,B,] | [C,E,G,C] z !^![C,,C,]2 || %103
[K:F] [F,,F,][F,A,] C,[F,A,] | F,[A,C] C,[A,C] | G,[B,C] C,[B,C] | G,[B,C] C,[B,C] | %107
!<(! !^![E,,E,]2 !^![_E,,_E,]2!<)! | !^![D,,D,]2 !^![C,,C,]2 | [F,,F,][A,C] C,[A,C] | %110
 F,[A,C] C,[A,C] | F,[A,C] C,[A,C] | F,[A,C] C,[A,C] | G,[B,C] C,[B,C] | G,[B,C] C,[B,C] | %115
!<(! !^![E,,E,]2 !^![_E,,_E,]2 | !^![D,,D,]2 !^![C,,C,]2!<)! |!fff! [F,,F,](A,/B,/) CA, | %118
 F, z !^![F,,C,F,] z |] %119
V:3
 x4 | x4 | x4 | x4 |: x4 | x4 | x4 | x4 | x4 | x4 | x4 | x4 | x4 | x4 | x4 | x4 | x4 | x4 | x4 |1 %19
 x4 :|2 x4 |: x4 | x4 | x4 | x4 | x4 | x4 | a[ce] g[Bc] | e[EB] c[EB] | x4 | x4 | x4 | x4 | x4 | %34
 a(c/e/) g(c/e/) |1 x4 | x4 :|2 x4 | x4 || x4 | x4 | x4 | x4 | x4 | x4 | x4 | x4 | x4 | x4 | x4 | %50
 x4 | x4 | x4 | x4 | x4 || x4 | x4 | x4 | [ce]4 | C2 ^C2 | D2 E2 | x4 | z [CF]/[CF]/ [CF][CF] | %63
 x4 | x4 | x4 | [ce]4 | C2 ^C2 | D2 E2 | x2 (E2 | (F2) E2) || x4 | x4 | x4 |!8va(! [c'e']4!8va)! | %75
 C[GB] ^C[GB] | D[GB] E[GB] | x4 | x4 | x4 | x4 | x4 |!8va(! [c'e']4!8va)! | C[GB] ^C[GB] | %84
 D[GB] E[GB] | x4 | x4 ||[K:C] x4 | x4 | [ce]2 [ce]2 | x4 | x4 | x4 | ^F2 F2 | [=FB]2 F2 | x4 | %96
 x4 | [ce]2 [ce]2 | x4 | z [Bd][Ac] z | z [Bd][Ac] z | x4 | x4 ||[K:F] x4 | x4 | x4 | %106
!8va(! x4!8va)! | C[GB] ^C[GB] | D[GB] E[GB] | x4 | x4 | x4 | x4 | x4 |!8va(! x4!8va)! | %115
 C[GB] ^C[GB] | D[GB] E[GB] | x4 | x2!8va(! x2!8va)! |] %119

